src/22/actions/media-show-active-track-amarok.svg

<svg xmlns="http://www.w3.org/2000/svg" viewBox="0 0 22 22">
  <defs id="defs3051">
    <style type="text/css" id="current-color-scheme">
      .ColorScheme-Text {
        color:#5d656b;
      }
      .ColorScheme-Highlight {
        color:#3daee9;
      }
      </style>
  </defs>
 <path 
     style="fill:currentColor;fill-opacity:1;stroke:none" 
     d="M 4.5 3 C 3.6715787 3 3.0000083 3.6715704 3 4.5 C 3.0000083 5.3284296 3.6715787 6 4.5 6 C 5.3284213 6 5.9999917 5.3284296 6 4.5 C 5.9999917 3.6715704 5.3284213 3 4.5 3 z M 7 4 L 7 5 L 8 5 L 8 4 L 7 4 z M 9 4 L 9 5 L 19 5 L 19 4 L 9 4 z M 9 6 L 9 7 L 12 7 L 12 6 L 9 6 z M 4.5 9 C 3.6715732 8.9999988 3 9.6715721 3 10.5 C 3 11.328428 3.6715732 12.000001 4.5 12 C 5.3284268 12.000001 6 11.328428 6 10.5 C 6 9.6715721 5.3284268 8.9999988 4.5 9 z M 7 10 L 7 11 L 8 11 L 8 10 L 7 10 z M 9 10 L 9 11 L 14 11 L 14 10 L 9 10 z M 9 12 L 9 13 L 13 13 L 13 12 L 9 12 z M 4.5 15 C 3.6715732 14.999999 3 15.671572 3 16.5 C 3 17.328428 3.6715732 18.000001 4.5 18 C 5.3284268 18.000001 6 17.328428 6 16.5 C 6 15.671572 5.3284268 14.999999 4.5 15 z M 7 16 L 7 17 L 8 17 L 8 16 L 7 16 z M 9 16 L 9 17 L 19 17 L 19 16 L 9 16 z M 9 18 L 9 19 L 16 19 L 16 18 L 9 18 z "
     class="ColorScheme-Text"
     />
 <path 
     style="fill:currentColor;fill-opacity:1;stroke:none" 
     d="M 19 8 L 15 11 L 19 14 L 19 8 z "
     class="ColorScheme-Highlight"
     />
</svg>

<svg xmlns="http://www.w3.org/2000/svg" viewBox="0 0 22 22"><path d="M4.5 3a1.5 1.5 0 1 0 0 3 1.5 1.5 0 0 0 0-3zM7 4v1h1V4H7zm2 0v1h10V4H9zm0 2v1h3V6H9zM4.5 9a1.5 1.5 0 1 0 0 3 1.5 1.5 0 0 0 0-3zM7 10v1h1v-1H7zm2 0v1h5v-1H9zm0 2v1h4v-1H9zm-4.5 3a1.5 1.5 0 1 0 0 3 1.5 1.5 0 0 0 0-3zM7 16v1h1v-1H7zm2 0v1h10v-1H9zm0 2v1h7v-1H9z" fill="currentColor" color="#5d656b"/><path d="M19 8l-4 3 4 3V8z" fill="currentColor" color="#3daee9"/></svg>
